wp-content/themes/KOOEN/assets/img/common/top_anchor.svg

<svg width="31" height="23" viewBox="0 0 31 23" fill="none" xmlns="http://www.w3.org/2000/svg">
<path d="M4.92 1.448V17H3.264V1.448H0V0.0079999H8.208V1.448H4.92ZM17.9679 11.072C17.9679 12.016 17.8719 12.872 17.6799 13.64C17.4879 14.408 17.2159 15.072 16.8639 15.632C16.5119 16.192 16.0719 16.624 15.5439 16.928C15.0319 17.232 14.4559 17.384 13.8159 17.384C13.1759 17.384 12.5999 17.232 12.0879 16.928C11.5759 16.624 11.1359 16.192 10.7679 15.632C10.4159 15.072 10.1439 14.408 9.95194 13.64C9.75994 12.872 9.66394 12.016 9.66394 11.072C9.66394 10.128 9.75194 9.264 9.92794 8.48C10.1199 7.696 10.3919 7.024 10.7439 6.464C11.0959 5.904 11.5279 5.472 12.0399 5.168C12.5679 4.864 13.1599 4.712 13.8159 4.712C14.4559 4.712 15.0319 4.864 15.5439 5.168C16.0719 5.472 16.5119 5.904 16.8639 6.464C17.2159 7.024 17.4879 7.696 17.6799 8.48C17.8719 9.264 17.9679 10.128 17.9679 11.072ZM16.3359 11.048C16.3359 10.344 16.2799 9.688 16.1679 9.08C16.0719 8.472 15.9199 7.952 15.7119 7.52C15.5039 7.072 15.2399 6.72 14.9199 6.464C14.6159 6.208 14.2479 6.08 13.8159 6.08C13.3839 6.08 13.0079 6.208 12.6879 6.464C12.3679 6.72 12.1039 7.072 11.8959 7.52C11.7039 7.952 11.5519 8.472 11.4399 9.08C11.3439 9.688 11.2959 10.344 11.2959 11.048C11.2959 11.752 11.3439 12.4 11.4399 12.992C11.5519 13.584 11.7039 14.104 11.8959 14.552C12.1039 15 12.3679 15.352 12.6879 15.608C13.0079 15.848 13.3839 15.968 13.8159 15.968C14.2479 15.968 14.6239 15.848 14.9439 15.608C15.2639 15.352 15.5199 15 15.7119 14.552C15.9199 14.104 16.0719 13.584 16.1679 12.992C16.2799 12.4 16.3359 11.752 16.3359 11.048ZM30.3623 11.072C30.3623 12 30.2823 12.848 30.1222 13.616C29.9622 14.384 29.7222 15.048 29.4022 15.608C29.0823 16.168 28.6903 16.608 28.2262 16.928C27.7623 17.232 27.2183 17.384 26.5943 17.384C25.8742 17.384 25.2662 17.16 24.7702 16.712C24.2902 16.264 23.9542 15.68 23.7622 14.96H23.7382V22.76H22.1542V5.096H23.6902V7.232H23.7382C23.9302 6.496 24.2502 5.896 24.6982 5.432C25.1462 4.952 25.7782 4.712 26.5943 4.712C27.1863 4.712 27.7143 4.872 28.1782 5.192C28.6582 5.512 29.0582 5.952 29.3783 6.512C29.6983 7.072 29.9383 7.744 30.0983 8.528C30.2743 9.296 30.3623 10.144 30.3623 11.072ZM28.7302 11.024C28.7302 10.336 28.6823 9.696 28.5863 9.104C28.4903 8.496 28.3382 7.968 28.1302 7.52C27.9223 7.072 27.6583 6.72 27.3382 6.464C27.0343 6.208 26.6662 6.08 26.2342 6.08C25.8022 6.08 25.4262 6.208 25.1062 6.464C24.8022 6.72 24.5382 7.072 24.3142 7.52C24.1062 7.968 23.9462 8.496 23.8342 9.104C23.7382 9.696 23.6902 10.336 23.6902 11.024C23.6902 11.728 23.7382 12.384 23.8342 12.992C23.9462 13.6 24.1062 14.128 24.3142 14.576C24.5382 15.008 24.8102 15.352 25.1302 15.608C25.4502 15.864 25.8182 15.992 26.2342 15.992C26.6662 15.992 27.0343 15.864 27.3382 15.608C27.6583 15.352 27.9223 15.008 28.1302 14.576C28.3382 14.128 28.4903 13.6 28.5863 12.992C28.6823 12.384 28.7302 11.728 28.7302 11.024Z" fill="url(#paint0_linear)"/>
<defs>
<linearGradient id="paint0_linear" x1="0.0011306" y1="9.49076" x2="32.0037" y2="9.49076" gradientUnits="userSpaceOnUse">
<stop stop-color="#00A99D"/>
<stop offset="9.65257e-08" stop-color="#00A99D"/>
<stop offset="0.9996" stop-color="#00D47F"/>
<stop offset="1" stop-color="#00D47F"/>
</linearGradient>
</defs>
</svg>

<svg fill="none" height="23" viewBox="0 0 31 23" width="31" xmlns="http://www.w3.org/2000/svg" xmlns:xlink="http://www.w3.org/1999/xlink"><linearGradient id="a" gradientUnits="userSpaceOnUse" x1=".001131" x2="32.0037" y1="9.49076" y2="9.49076"><stop offset="0" stop-color="#00a99d"/><stop offset=".00000009653" stop-color="#00a99d"/><stop offset=".9996" stop-color="#00d47f"/><stop offset="1" stop-color="#00d47f"/></linearGradient><path d="m4.92 1.448v15.552h-1.656v-15.552h-3.264v-1.4400001h8.208v1.4400001zm13.0479 9.624c0 .944-.096 1.8-.288 2.568s-.464 1.432-.816 1.992-.792.992-1.32 1.296c-.512.304-1.088.456-1.728.456s-1.216-.152-1.728-.456-.952-.736-1.32-1.296c-.352-.56-.624-1.224-.81596-1.992-.192-.768-.288-1.624-.288-2.568s.088-1.808.264-2.592c.19196-.784.46396-1.456.81596-2.016s.784-.992 1.296-1.296c.528-.304 1.12-.456 1.776-.456.64 0 1.216.152 1.728.456.528.304.968.736 1.32 1.296s.624 1.232.816 2.016.288 1.648.288 2.592zm-1.632-.024c0-.704-.056-1.36-.168-1.968-.096-.608-.248-1.128-.456-1.56-.208-.448-.472-.8-.792-1.056-.304-.256-.672-.384-1.104-.384s-.808.128-1.128.384-.584.608-.792 1.056c-.192.432-.344.952-.456 1.56-.096.608-.144 1.264-.144 1.968s.048 1.352.144 1.944c.112.592.264 1.112.456 1.56.208.448.472.8.792 1.056.32.24.696.36 1.128.36s.808-.12 1.128-.36c.32-.256.576-.608.768-1.056.208-.448.36-.968.456-1.56.112-.592.168-1.24.168-1.944zm14.0264.024c0 .928-.08 1.776-.2401 2.544-.16.768-.4 1.432-.72 1.992-.3199.56-.7119 1-1.176 1.32-.4639.304-1.0079.456-1.6319.456-.7201 0-1.3281-.224-1.8241-.672-.48-.448-.816-1.032-1.008-1.752h-.024v7.8h-1.584v-17.664h1.536v2.136h.048c.192-.736.512-1.336.96-1.8.448-.48 1.08-.72 1.8961-.72.592 0 1.12.16 1.5839.48.48.32.88.76 1.2001 1.32.32.56.56 1.232.72 2.016.176.768.264 1.616.264 2.544zm-1.6321-.048c0-.688-.0479-1.328-.1439-1.92-.096-.608-.2481-1.136-.4561-1.584-.2079-.448-.4719-.8-.792-1.056-.3039-.256-.672-.384-1.104-.384s-.808.128-1.128.384c-.304.256-.568.608-.792 1.056-.208.448-.368.976-.48 1.584-.096.592-.144 1.232-.144 1.92 0 .704.048 1.36.144 1.968.112.608.272 1.136.48 1.584.224.432.496.776.816 1.032s.688.384 1.104.384c.432 0 .8001-.128 1.104-.384.3201-.256.5841-.6.792-1.032.208-.448.3601-.976.4561-1.584s.1439-1.264.1439-1.968z" fill="url(#a)"/></svg>
